X: 16733
T: Hard Is My Fate
R: reel
M: 4/4
K: Gmajor
G>A|{GA}B2 D2 D2 B2|(BA)(AG) G2 G>A|{GA}B2 E2 E2 A2|(GF)(ED) D2 (G>A)|
{GA}B2 D2 D2 B2|(BA)(AG) G2 G>A|{GA}B3E {FG}A3F|[B,G]6:|
|:(B,>C)|D3B, G3A|(B/A/)G/F/ (E/D/)C/B,/ C3B,|A,3B, C3D|(DC)(CB,) [G,B,]2 z (B/c/)|
d3B g3a|(b/a/)g/f/ (e/d/)c/B/ c3[Bd]|([ce]3[Bd]) [Bd]3[DF]|[B,G]6:|

